src/icons/main-apply.svg

<?xml version="1.0" encoding="utf-8"?>
<!-- Generator: Adobe Illustrator 20.1.0, SVG Export Plug-In . SVG Version: 6.00 Build 0)  -->
<svg version="1.1" id="Layer_1" xmlns="http://www.w3.org/2000/svg" xmlns:xlink="http://www.w3.org/1999/xlink" x="0px" y="0px"
	 viewBox="0 0 14 14" style="enable-background:new 0 0 14 14;" xml:space="preserve">
<style type="text/css">
	.st0{fill:#4D5969;}
</style>
<title>HDL/Icon/Standard/apply</title>
<desc>Created with Sketch.</desc>
<g id="Colors">
	<g id="Main-Icons" transform="translate(-622.000000, -1582.000000)">
		<g id="Apply" transform="translate(601.000000, 1564.000000)">
			<g id="HDL_x2F_Icon_x2F_Standard_x2F_apply" transform="translate(21.000000, 18.000000)">
				<path id="Shape" class="st0" d="M2.5,0C1.9,0,1.4,0.5,1.4,1.1v5.7c0,0.6,0.5,1.1,1.1,1.1h5.7c0.6,0,1.1-0.5,1.1-1.1V1.1
					C9.3,0.5,8.8,0,8.2,0H2.5z M2.5,0.6h1.1c0,0.2,0.1,0.3,0.3,0.3c0.2,0,0.3-0.1,0.3-0.3h1.3c0,0.2,0.1,0.3,0.3,0.3
					c0.2,0,0.3-0.1,0.3-0.3h1.3c0,0.2,0.1,0.3,0.3,0.3C7.9,0.9,8,0.8,8,0.6h0.2c0.2,0,0.4,0.2,0.4,0.4v0.2c-0.2,0-0.3,0.1-0.3,0.3
					s0.1,0.3,0.3,0.3v1.3c-0.2,0-0.3,0.1-0.3,0.3c0,0.2,0.1,0.3,0.3,0.3V5C8.5,5,8.3,5.2,8.3,5.4c0,0.2,0.1,0.3,0.3,0.3v1.1v0.1
					C8.5,7,8.3,7.1,8.3,7.2H8.2H7.1C7.1,7,7,6.9,6.8,6.9c-0.2,0-0.4,0.2-0.4,0.4H5.2C5.2,7.1,5.1,7,4.9,7C4.7,7,4.6,7.1,4.6,7.3H3.3
					C3.3,7.1,3.2,7,3,7S2.6,7.1,2.6,7.3H2.5C2.2,7.3,2,7.1,2,6.8V6.6c0.2,0,0.3-0.1,0.3-0.3C2.3,6.1,2.2,6,2,6V4.7
					c0.2,0,0.3-0.1,0.3-0.3c0-0.2-0.1-0.3-0.3-0.3V2.8c0.2,0,0.3-0.1,0.3-0.3S2.2,2.2,2,2.2V1.1C2,1,2,1,2,0.9
					c0.2,0,0.3-0.1,0.3-0.3C2.4,0.6,2.4,0.6,2.5,0.6z M3,1.3c-0.2,0-0.3,0.1-0.3,0.3S2.8,1.9,3,1.9s0.3-0.1,0.3-0.3S3.1,1.3,3,1.3z
					 M4.8,1.3c-0.2,0-0.3,0.1-0.3,0.3s0.1,0.3,0.3,0.3c0.2,0,0.3-0.1,0.3-0.3C5.2,1.4,5,1.3,4.8,1.3z M6.7,1.3
					c-0.2,0-0.3,0.1-0.3,0.3s0.1,0.3,0.3,0.3C6.9,1.9,7,1.8,7,1.6C7.1,1.4,6.9,1.3,6.7,1.3z M3.9,2.2c-0.2,0-0.3,0.1-0.3,0.3
					s0.1,0.3,0.3,0.3c0.2,0,0.3-0.1,0.3-0.3C4.2,2.4,4.1,2.2,3.9,2.2z M5.8,2.2c-0.2,0-0.3,0.1-0.3,0.3s0.1,0.3,0.3,0.3
					c0.2,0,0.3-0.1,0.3-0.3C6.1,2.4,6,2.2,5.8,2.2z M7.7,2.2c-0.2,0-0.3,0.1-0.3,0.3s0.1,0.3,0.3,0.3C7.9,2.8,8,2.7,8,2.5
					C8,2.4,7.9,2.2,7.7,2.2z M3,3.2c-0.2,0-0.3,0.1-0.3,0.3S2.8,3.8,3,3.8s0.3-0.1,0.3-0.3S3.1,3.2,3,3.2z M4.8,3.2
					c-0.2,0-0.3,0.1-0.3,0.3s0.1,0.3,0.3,0.3c0.2,0,0.3-0.1,0.3-0.3C5.2,3.3,5,3.2,4.8,3.2z M6.7,3.2c-0.2,0-0.3,0.1-0.3,0.3
					s0.1,0.3,0.3,0.3C6.9,3.8,7,3.7,7,3.5C7.1,3.3,6.9,3.2,6.7,3.2z M3.9,4.1c-0.2,0-0.3,0.1-0.3,0.3c0,0.2,0.1,0.3,0.3,0.3
					c0.2,0,0.3-0.1,0.3-0.3C4.2,4.2,4.1,4.1,3.9,4.1z M5.8,4.1c-0.2,0-0.3,0.1-0.3,0.3c0,0.2,0.1,0.3,0.3,0.3c0.2,0,0.3-0.1,0.3-0.3
					C6.1,4.2,6,4.1,5.8,4.1z M7.7,4.1c-0.2,0-0.3,0.1-0.3,0.3c0,0.2,0.1,0.3,0.3,0.3C7.9,4.7,8,4.6,8,4.4C8,4.2,7.9,4.1,7.7,4.1z
					 M9.9,4.7v0.6h3c0.2,0,0.4,0.2,0.4,0.4v5.7c0,0.2-0.2,0.4-0.4,0.4H7.2c-0.2,0-0.4-0.2-0.4-0.4v-3H6.1v3c0,0.6,0.5,1.1,1.1,1.1
					h5.7c0.6,0,1.1-0.5,1.1-1.1V5.8c0-0.6-0.5-1.1-1.1-1.1H9.9z M3,5C2.8,5,2.6,5.2,2.6,5.4c0,0.2,0.2,0.3,0.4,0.3s0.3-0.1,0.3-0.3
					C3.3,5.2,3.1,5,3,5z M4.8,5C4.7,5,4.5,5.2,4.5,5.4c0,0.2,0.1,0.3,0.3,0.3c0.2,0,0.3-0.1,0.3-0.3C5.1,5.2,5,5,4.8,5z M6.7,5
					C6.6,5,6.4,5.2,6.4,5.4c0,0.2,0.1,0.3,0.3,0.3C6.9,5.7,7,5.6,7,5.4C7,5.2,6.9,5,6.7,5z M3.9,6C3.7,6,3.6,6.1,3.6,6.3
					c0,0.2,0.1,0.3,0.3,0.3c0.2,0,0.3-0.1,0.3-0.3C4.2,6.1,4.1,6,3.9,6z M5.8,6C5.6,6,5.5,6.1,5.5,6.3c0,0.2,0.1,0.3,0.3,0.3
					c0.2,0,0.3-0.1,0.3-0.3C6.1,6.1,6,6,5.8,6z M7.7,6C7.5,6,7.4,6.1,7.4,6.3c0,0.2,0.1,0.3,0.3,0.3C7.9,6.6,8,6.5,8,6.3
					C8,6.1,7.9,6,7.7,6z M0.4,8.5c-0.2,0-0.3,0.1-0.3,0.3v2.8c0,0.5,0.4,0.9,0.9,0.9h3l-0.7,0.7c-0.1,0.1-0.1,0.2-0.1,0.3
					s0.1,0.2,0.2,0.2c0.1,0,0.2,0,0.3-0.1l1.3-1c0.1-0.1,0.1-0.2,0.1-0.3c0-0.1,0-0.2-0.1-0.3l0,0l-1.2-1.2
					c-0.1-0.1-0.1-0.1-0.2-0.1c-0.1,0-0.2,0.1-0.3,0.2c0,0.1,0,0.3,0.1,0.3L4.1,12h-3c-0.2,0-0.3-0.1-0.3-0.3V8.8
					c0-0.1,0-0.2-0.1-0.2C0.6,8.5,0.5,8.5,0.4,8.5z"/>
			</g>
		</g>
	</g>
</g>
</svg>

<?xml version="1.0" encoding="UTF-8"?>
<svg width="14px" height="14px" viewBox="0 0 14 14" version="1.1" xmlns="http://www.w3.org/2000/svg" xmlns:xlink="http://www.w3.org/1999/xlink">
    <!-- Generator: Sketch 59 (86127) - https://sketch.com -->
    <title>HDL/Icon/Standard/apply</title>
    <desc>Created with Sketch.</desc>
    <g id="Colors" stroke="none" stroke-width="1" fill="none" fill-rule="evenodd">
        <g id="Main-Icons" transform="translate(-622.000000, -1582.000000)" fill="#4D5969">
            <g id="Apply" transform="translate(601.000000, 1564.000000)">
                <g id="HDL/Icon/Standard/apply" transform="translate(21.000000, 18.000000)">
                    <path d="M2.5,0 C1.9,0 1.4,0.5 1.4,1.1 L1.4,6.8 C1.4,7.4 1.9,7.9 2.5,7.9 L8.2,7.9 C8.8,7.9 9.3,7.4 9.3,6.8 L9.3,1.1 C9.3,0.5 8.8,0 8.2,0 L2.5,0 Z M2.5,0.6 L3.6,0.6 C3.6,0.8 3.7,0.9 3.9,0.9 C4.1,0.9 4.2,0.8 4.2,0.6 L5.5,0.6 C5.5,0.8 5.6,0.9 5.8,0.9 C6,0.9 6.1,0.8 6.1,0.6 L7.4,0.6 C7.4,0.8 7.5,0.9 7.7,0.9 C7.9,0.9 8,0.8 8,0.6 L8.2,0.6 C8.4,0.6 8.6,0.8 8.6,1 L8.6,1.2 C8.4,1.2 8.3,1.3 8.3,1.5 C8.3,1.7 8.4,1.8 8.6,1.8 L8.6,3.1 C8.4,3.1 8.3,3.2 8.3,3.4 C8.3,3.6 8.4,3.7 8.6,3.7 L8.6,5 C8.5,5 8.3,5.2 8.3,5.4 C8.3,5.6 8.4,5.7 8.6,5.7 L8.6,6.8 C8.6,6.8 8.6,6.9 8.6,6.9 C8.5,7 8.3,7.1 8.3,7.2 C8.3,7.2 8.2,7.2 8.2,7.2 L7.1,7.2 C7.1,7 7,6.9 6.8,6.9 C6.6,6.9 6.4,7.1 6.4,7.3 L5.2,7.3 C5.2,7.1 5.1,7 4.9,7 C4.7,7 4.6,7.1 4.6,7.3 L3.3,7.3 C3.3,7.1 3.2,7 3,7 C2.8,7 2.6,7.1 2.6,7.3 L2.5,7.3 C2.2,7.3 2,7.1 2,6.8 L2,6.6 C2.2,6.6 2.3,6.5 2.3,6.3 C2.3,6.1 2.2,6 2,6 L2,4.7 C2.2,4.7 2.3,4.6 2.3,4.4 C2.3,4.2 2.2,4.1 2,4.1 L2,2.8 C2.2,2.8 2.3,2.7 2.3,2.5 C2.3,2.3 2.2,2.2 2,2.2 L2,1.1 C2,1 2,1 2,0.9 C2.2,0.9 2.3,0.8 2.3,0.6 C2.4,0.6 2.4,0.6 2.5,0.6 Z M3,1.3 C2.8,1.3 2.7,1.4 2.7,1.6 C2.7,1.8 2.8,1.9 3,1.9 C3.2,1.9 3.3,1.8 3.3,1.6 C3.3,1.4 3.1,1.3 3,1.3 Z M4.8,1.3 C4.6,1.3 4.5,1.4 4.5,1.6 C4.5,1.8 4.6,1.9 4.8,1.9 C5,1.9 5.1,1.8 5.1,1.6 C5.2,1.4 5,1.3 4.8,1.3 Z M6.7,1.3 C6.5,1.3 6.4,1.4 6.4,1.6 C6.4,1.8 6.5,1.9 6.7,1.9 C6.9,1.9 7,1.8 7,1.6 C7.1,1.4 6.9,1.3 6.7,1.3 Z M3.9,2.2 C3.7,2.2 3.6,2.3 3.6,2.5 C3.6,2.7 3.7,2.8 3.9,2.8 C4.1,2.8 4.2,2.7 4.2,2.5 C4.2,2.4 4.1,2.2 3.9,2.2 Z M5.8,2.2 C5.6,2.2 5.5,2.3 5.5,2.5 C5.5,2.7 5.6,2.8 5.8,2.8 C6,2.8 6.1,2.7 6.1,2.5 C6.1,2.4 6,2.2 5.8,2.2 Z M7.7,2.2 C7.5,2.2 7.4,2.3 7.4,2.5 C7.4,2.7 7.5,2.8 7.7,2.8 C7.9,2.8 8,2.7 8,2.5 C8,2.4 7.9,2.2 7.7,2.2 Z M3,3.2 C2.8,3.2 2.7,3.3 2.7,3.5 C2.7,3.7 2.8,3.8 3,3.8 C3.2,3.8 3.3,3.7 3.3,3.5 C3.3,3.3 3.1,3.2 3,3.2 Z M4.8,3.2 C4.6,3.2 4.5,3.3 4.5,3.5 C4.5,3.7 4.6,3.8 4.8,3.8 C5,3.8 5.1,3.7 5.1,3.5 C5.2,3.3 5,3.2 4.8,3.2 Z M6.7,3.2 C6.5,3.2 6.4,3.3 6.4,3.5 C6.4,3.7 6.5,3.8 6.7,3.8 C6.9,3.8 7,3.7 7,3.5 C7.1,3.3 6.9,3.2 6.7,3.2 Z M3.9,4.1 C3.7,4.1 3.6,4.2 3.6,4.4 C3.6,4.6 3.7,4.7 3.9,4.7 C4.1,4.7 4.2,4.6 4.2,4.4 C4.2,4.2 4.1,4.1 3.9,4.1 Z M5.8,4.1 C5.6,4.1 5.5,4.2 5.5,4.4 C5.5,4.6 5.6,4.7 5.8,4.7 C6,4.7 6.1,4.6 6.1,4.4 C6.1,4.2 6,4.1 5.8,4.1 Z M7.7,4.1 C7.5,4.1 7.4,4.2 7.4,4.4 C7.4,4.6 7.5,4.7 7.7,4.7 C7.9,4.7 8,4.6 8,4.4 C8,4.2 7.9,4.1 7.7,4.1 Z M9.9,4.7 L9.9,5.3 L12.9,5.3 C13.1,5.3 13.3,5.5 13.3,5.7 L13.3,11.4 C13.3,11.6 13.1,11.8 12.9,11.8 L7.2,11.8 C7,11.8 6.8,11.6 6.8,11.4 L6.8,8.4 L6.1,8.4 L6.1,11.4 C6.1,12 6.6,12.5 7.2,12.5 L12.9,12.5 C13.5,12.5 14,12 14,11.4 L14,5.8 C14,5.2 13.5,4.7 12.9,4.7 L9.9,4.7 Z M3,5 C2.8,5 2.6,5.2 2.6,5.4 C2.6,5.6 2.8,5.7 3,5.7 C3.2,5.7 3.3,5.6 3.3,5.4 C3.3,5.2 3.1,5 3,5 Z M4.8,5 C4.7,5 4.5,5.2 4.5,5.4 C4.5,5.6 4.6,5.7 4.8,5.7 C5,5.7 5.1,5.6 5.1,5.4 C5.1,5.2 5,5 4.8,5 Z M6.7,5 C6.6,5 6.4,5.2 6.4,5.4 C6.4,5.6 6.5,5.7 6.7,5.7 C6.9,5.7 7,5.6 7,5.4 C7,5.2 6.9,5 6.7,5 Z M3.9,6 C3.7,6 3.6,6.1 3.6,6.3 C3.6,6.5 3.7,6.6 3.9,6.6 C4.1,6.6 4.2,6.5 4.2,6.3 C4.2,6.1 4.1,6 3.9,6 Z M5.8,6 C5.6,6 5.5,6.1 5.5,6.3 C5.5,6.5 5.6,6.6 5.8,6.6 C6,6.6 6.1,6.5 6.1,6.3 C6.1,6.1 6,6 5.8,6 Z M7.7,6 C7.5,6 7.4,6.1 7.4,6.3 C7.4,6.5 7.5,6.6 7.7,6.6 C7.9,6.6 8,6.5 8,6.3 C8,6.1 7.9,6 7.7,6 Z M0.4,8.5 C0.2,8.5 0.1,8.6 0.1,8.8 L0.1,11.6 C0.1,12.1 0.5,12.5 1,12.5 L4,12.5 L3.3,13.2 C3.2,13.3 3.2,13.4 3.2,13.5 C3.2,13.6 3.3,13.7 3.4,13.7 C3.5,13.7 3.6,13.7 3.7,13.6 L5,12.6 C5.1,12.5 5.1,12.4 5.1,12.3 C5.1,12.2 5.1,12.1 5,12 C5,12 5,12 5,12 L3.8,10.8 C3.7,10.7 3.7,10.7 3.6,10.7 C3.5,10.7 3.4,10.8 3.3,10.9 C3.3,11 3.3,11.2 3.4,11.2 L4.1,12 L1.1,12 C0.9,12 0.8,11.9 0.8,11.7 L0.8,8.8 C0.8,8.7 0.8,8.6 0.7,8.6 C0.6,8.5 0.5,8.5 0.4,8.5 Z" id="Shape"></path>
                </g>
            </g>
        </g>
    </g>
</svg>
